apps/documenteditor/main/resources/img/toolbar/2.5x/big/btn-borders-all.svg

<svg xmlns="http://www.w3.org/2000/svg" width="28" height="28" fill="none"><path fill="#000" d="M23 23H6V6h17v17ZM7 22h7v-7H7v7Zm8 0h7v-7h-7v7Zm-8-8h7V7H7v7Zm8 0h7V7h-7v7Z"/></svg>

<svg width="28" height="28" viewBox="0 0 28 28" fill="none" xmlns="http://www.w3.org/2000/svg">
<path fill-rule="evenodd" clip-rule="evenodd" d="M22 7H15V14H22V7ZM22 15H15V22H22V15ZM14 14V7H7V14H14ZM7 15V22H14V15H7ZM7 6H6V7V22V23H7H22H23V22V7V6H22H7Z" fill="black"/>
</svg>
